X: 3
T: Cooley's
Z: middlefaster
S: https://thesession.org/tunes/1#setting12343
R: reel
M: 4/4
L: 1/8
K: Emin
|:D2|EBBA B2 EB|B2 AB dBAG|FDAD BDAD|FDAD dAFD|EBBA B2 EB|B2 AB defg|afef dBAF|DEFD E2:||:gf|eB ~B2 eBgB|eB ~B2 {a}gedB|A2 FA DFAB|BA FA defg|eB ~B2 eBgB|eB B2 defg|afef dBAF|DEFD E2:|
